DVA
CUT[Der eifersuechtige Knabe
    Es stehen drei Sterne am Himmel,]
CNR[sie geben der Welt ihren Schein]
REG[Europa, Mitteleuropa, Lothringen, Settingen]
KEY[D0052  08  G 3/4 4/4]
MEL[-5_  -5_1_1_  1_2_3_  3_.23_  2__
    2_  2_3_4_  4_5_6_  6__5_  3__
    5_4_  3_.43_  2_1_5_  5__.  ^__
    6_  5_.43_  2_5_4_  3__.  ^__ //] >>
FCT[Ballade, Liebe, Mord aus Eifersucht]
